icons/desktop/16/svg/highlighter-16.svg

<svg width="16" height="16" viewBox="0 0 16 16" fill="none" xmlns="http://www.w3.org/2000/svg">
<g clip-path="url(#clip0_8069_32541)">
<path d="M14.75 13.5002C15.4404 13.5002 16 14.0598 16 14.7502C16 15.4405 15.4404 16.0002 14.75 16.0002H2.25C1.55964 16.0002 1 15.4405 1 14.7502C1 14.0598 1.55964 13.5002 2.25 13.5002H14.75Z" fill="black"/>
<path fill-rule="evenodd" clip-rule="evenodd" d="M11.0273 0.440605C11.9113 -0.220361 13.17 -0.125657 13.957 0.660331L15.3408 2.04607C16.1278 2.83407 16.2225 4.09567 15.5615 4.97967C14.7456 6.07248 13.8427 7.11545 12.8809 8.0783C12.8661 8.09331 11.3329 9.64868 10.2412 10.7424C9.81631 11.1683 9.25123 11.4024 8.65039 11.4035L8.64844 11.4025C8.2557 11.4025 7.87955 11.2996 7.54688 11.1115L6.8291 11.8488C6.7351 11.9458 6.6057 12.0002 6.4707 12.0002H3.01465C2.57191 11.9999 2.34841 11.4675 2.65723 11.1506L5.05371 8.69256C4.77427 8.31003 4.62112 7.85184 4.62109 7.36932C4.62109 6.76832 4.85528 6.20252 5.28027 5.77752L7.93066 3.12322C8.89266 2.16022 9.93534 1.2576 11.0273 0.440605ZM6.33984 6.83709C6.19785 6.97909 6.12012 7.16734 6.12012 7.36834C6.12015 7.56928 6.19788 7.75765 6.33984 7.89861L8.11816 9.67889C8.26016 9.82089 8.44844 9.89959 8.64844 9.89959C8.84827 9.89947 9.03682 9.8198 9.17871 9.67791C9.61567 9.24015 10.1215 8.72603 10.5742 8.26873L7.77539 5.39861L6.33984 6.83709ZM12.3594 1.4992C12.2064 1.4992 12.0528 1.54584 11.9248 1.6408C10.8899 2.41471 9.90412 3.27091 8.99121 4.18279L8.83691 4.33611L11.6309 7.20232C11.7469 7.08459 11.8154 7.01678 11.8154 7.01678C12.7303 6.1019 13.5855 5.11413 14.3594 4.0783C14.5772 3.78744 14.5419 3.3696 14.2793 3.10662L12.8945 1.72088C12.7477 1.57324 12.5521 1.49833 12.3584 1.49822L12.3594 1.4992Z" fill="black"/>
</g>
<defs>
<clipPath id="clip0_8069_32541">
<rect width="16" height="16" fill="white"/>
</clipPath>
</defs>
</svg>

<!-- This Source Code Form is subject to the terms of the Mozilla Public
   - License, v. 2.0. If a copy of the MPL was not distributed with this
   - file, You can obtain one at http://mozilla.org/MPL/2.0/. -->
<svg xmlns="http://www.w3.org/2000/svg" width="16" height="16" fill="context-fill" fill-opacity="context-fill-opacity" viewBox="0 0 16 16">
    <g clip-path="url(#clip0_8069_32541)">
        <path d="M14.75 13.5a1.25 1.25 0 1 1 0 2.5H2.25a1.25 1.25 0 0 1 0-2.5z" />
        <path fill-rule="evenodd" d="M11.027.44a2.256 2.256 0 0 1 2.93.22l1.384 1.386a2.26 2.26 0 0 1 .22 2.934 29 29 0 0 1-2.68 3.098c-.015.015-1.548 1.57-2.64 2.664-.425.426-.99.66-1.59.661h-.003c-.392 0-.768-.103-1.101-.292l-.718.738a.5.5 0 0 1-.358.151H3.015a.5.5 0 0 1-.358-.85l2.397-2.457a2.23 2.23 0 0 1-.433-1.324c0-.6.234-1.166.66-1.591l2.65-2.655A29 29 0 0 1 11.027.441M6.34 6.838a.75.75 0 0 0-.22.531c0 .201.078.39.22.53l1.778 1.78a.746.746 0 0 0 1.06 0c.438-.438.943-.952 1.396-1.41l-2.799-2.87zM12.36 1.5a.73.73 0 0 0-.435.142A27 27 0 0 0 8.99 4.183l-.154.153 2.794 2.866.184-.185a27 27 0 0 0 2.544-2.939.75.75 0 0 0-.08-.971L12.895 1.72a.76.76 0 0 0-.537-.223z" clip-rule="evenodd" />
    </g>
</svg>
